!!!OTL-incipit: O SAG MIR AN, FRAU MUTTER LIEB
!!!ARE: Europa, Mitteleuropa, Deutschland, Herzogtum Berg
!!!SCT: Z0048
!!!TXL: @@DE
!!!YEM: Copyright 1995, estate of Helmut Schaffrath.
**kern	**text
*ICvox	*
*M6/8	*
*k[b-]	*
*d:	*
!LO:TX:a:t=Herʒogthum Berg.	!
{16dL	O
16eJ	.
=1	=1
4f	ſag
8e	mir
4d	an,
16aL	Frau
16bJ	.
=2	=2
4cc/	Mut-
8b/	-ter
4a}	lieb,
{8a	wo
=3	=3
4g	treff
8a	ich
8gL	dann
8fJ	.
8e	den
=4	=4
4f	Va-
8g	-ter
4a;}	mein?
{8a	Laß
=5	=5
4b-	ab,
8cc	mein
4dd	Sohn,
8a	du
=6	=6
8b-L	ſchaffſt
8aJ	.
8g#	mir
4a;}	Leid,
{8e	weiß
=7	=7
4f	nicht,
8g	wo
8aL	iſt
8gJ	.
8f	der
=8	=8
8gL	Va-
8fJ	.
8e	-ter
4d}	dein.
==	==
!!!AGN: Sagen - Lied, Romanze
!!!ONB: ESAC (Essen Associative Code) Database: ZUCCAL
!!!AMT: compound duple
!!!AIN: vox
!!!EED: Helmut Schaffrath
!!!EEV: 1.0
!!!GTL: I. Ernste Romanzen und Sagen.
!!!URL-scan: https://www.digitale-sammlungen.de/de/view/bsb11160571?page=97
!!!ENC: Anna Maria Matuszewska
!!!EEV: 2025/01/24
*-	*-
